assets/img/svg/footer-email.svg

<svg width="20" height="19" viewBox="0 0 20 19" fill="none" xmlns="http://www.w3.org/2000/svg">
<path d="M16.5625 2.96875H3.4375C2.85753 2.96934 2.30149 3.18847 1.89139 3.57807C1.48129 3.96767 1.25062 4.4959 1.25 5.04688V13.9531C1.25062 14.5041 1.48129 15.0323 1.89139 15.4219C2.30149 15.8115 2.85753 16.0307 3.4375 16.0312H16.5625C17.1425 16.0307 17.6985 15.8115 18.1086 15.4219C18.5187 15.0323 18.7494 14.5041 18.75 13.9531V5.04688C18.7494 4.4959 18.5187 3.96767 18.1086 3.57807C17.6985 3.18847 17.1425 2.96934 16.5625 2.96875ZM16.0086 6.40619L10.3836 10.5624C10.2739 10.6434 10.1389 10.6874 10 10.6874C9.86107 10.6874 9.72609 10.6434 9.61641 10.5624L3.99141 6.40619C3.92532 6.35878 3.86981 6.29936 3.8281 6.23139C3.78639 6.16342 3.75932 6.08825 3.74846 6.01026C3.73759 5.93226 3.74315 5.85299 3.76482 5.77706C3.78648 5.70112 3.82381 5.63003 3.87465 5.56792C3.92548 5.50581 3.9888 5.45392 4.06093 5.41526C4.13306 5.37659 4.21255 5.35194 4.2948 5.34271C4.37704 5.33349 4.4604 5.33989 4.54002 5.36154C4.61964 5.38318 4.69394 5.41965 4.75859 5.46881L10 9.34154L15.2414 5.46881C15.3725 5.37478 15.5372 5.33354 15.7 5.35401C15.8629 5.37448 16.0107 5.455 16.1115 5.57818C16.2123 5.70135 16.258 5.85727 16.2387 6.01222C16.2195 6.16717 16.1368 6.3087 16.0086 6.40619Z" fill="white"/>
</svg>

<svg width="20" height="19" fill="none" xmlns="http://www.w3.org/2000/svg"><path d="M16.563 2.969H3.438c-.58 0-1.137.22-1.547.61-.41.389-.64.917-.641 1.468v8.906c0 .551.231 1.08.641 1.469.41.39.967.609 1.546.61h13.126c.58-.001 1.136-.22 1.546-.61.41-.39.64-.918.641-1.469V5.047c0-.551-.231-1.08-.641-1.469a2.25 2.25 0 00-1.547-.61zm-.554 3.437l-5.625 4.156a.647.647 0 01-.768 0L3.991 6.406a.574.574 0 01.07-.99.648.648 0 01.698.053L10 9.342l5.241-3.873a.65.65 0 01.87.11.572.572 0 01-.102.827z" fill="#fff"/></svg>
